X: 34159
T: Reel For Grace
R: reel
M: 4/4
K: Dmajor
|:F|D ~F3 ADFA|d ~f3 afed|ef ed Be ~e2|fedB BAFE|
D ~F3 ADFA|d ~f3 afed|ef ed Be ~e2|1 defe dBA:|2 defe d3g||
faaf a2 ba|afef ~b3a|faaf a2 ba|afde fede|
~f3d e2 fe|dfed B2dB|AF ~F2 ABde|faeg fdde|
faaf a2 ba|afef ~b3a|faaf a2 ba|afde fede|
fgaf egfe|dfed BedB|AF ~F2 ABde|faeg fd d2||

